!!!!SEGMENT: pl-wn--sd-xvi-qu-273--122_gomolka-mikolaj--rad-to-slysze-ze-dom-panski-nawiedzic-mamy.krn
!!!cenid: 15xx:327
!!!COM: Gomółka, Mikołaj
!!!COM-rismid: pe30013343
!!!CDT: ~1535->1591/04/30
!!!CNT: Polish
!!!GTL: Melodiae na psalterz polski
!!!OTL: CXXII. Rad to słyszę, że dom Pański nawiedzić mamy
!!!PDT: 1580
!!!AGN: Sacred
!!!SMS-siglum: PL-Wn
!!!SMS-shelfmark: SD XVI.Qu.273
!!!SMS-shelfwork: 122 G
!!!NIFC-rismid:
!!!ONB-nifc: Melodiae na psalterz polski
**kern	**text	**text	**kern	**text	**text	**kern	**text	**text	**kern	**text	**text
*part4	*part4	*part4	*part3	*part3	*part3	*part2	*part2	*part2	*part1	*part1	*part1
*staff4	*staff4	*staff4	*staff3	*staff3	*staff3	*staff2	*staff2	*staff2	*staff1	*staff1	*staff1
*clefF3	*	*	*clefC3	*	*	*clefC2	*	*	*clefC1	*	*
*k[b-]	*	*	*k[]	*	*	*k[]	*	*	*k[]	*	*
*C:	*	*	*C:	*	*	*C:	*	*	*C:	*	*
*M4/2	*	*	*M4/2	*	*	*M4/2	*	*	*M4/2	*	*
*met(C|)	*	*	*met(C|)	*	*	*met(C|)	*	*	*met(C|)	*	*
*>[A,A,B,B]	*	*	*	*	*	*	*	*	*	*	*
=1	=1	=1	=1	=1	=1	=1	=1	=1	=1	=1	=1
*>A	*	*	*	*	*	*	*	*	*	*	*
1G	Rad	Y	1B	Rad	Y	1d	Rad	Y	1g	Rad	Y
2E	to	uyʒ́-	2c/	to	uyʒ́-	2.e/	to	uyʒ́-	2cc	to	uyʒ́-
2C	ʃły-	-ʒ̇ém	2c/	ʃły-	-ʒ̇ém	.	.	.	2cc	ʃły-	-ʒ̇ém
.	.	.	.	.	.	4f	ʃły-	-ʒ̇ém	.	.	.
=2-	=2	=2	=2	=2	=2	=2	=2	=2	=2	=2	=2
2G	-(ʃᴣę)	o	2d	-(ʃᴣę)	o	2g	-(ʃᴣę)	o	2b	-(ʃᴣę)	o
2E	ʒė	Ie-	2g	ʒė	Ie-	1cc	ʒ̇e_dom	Ie-	2ee	ʒ̇e	Ie-
2F/	dom	-ru-	2a	dom	-ru-	.	.	.	2dd	dom	-ru-
2G	páń-	-(ӡa-	4g	páń-	-(ӡa-	2b	páń-	-(ӡa-	2dd	páń-	-(ӡa-
.	.	.	4f	.	.	.	.	.	.	.	.
=3-	=3	=3	=3	=3	=3	=3	=3	=3	=3	=3	=3
2A	-(ʃťi)	-lem)	2e	-(ʃťi)	lem)	2cc	-(ʃťi)	-lem)	2cc	-(ʃťi)	-lem)
2E	ná-	twe	2g	ná-	twe	2b	ná-	twe	2ee	ná-	twe
2F/	-wie-	pięť-	2.f	-wie-	pięť	2a	-wie-	pięť-	4dd	-wie-	pięť
.	.	.	.	.	.	.	.	.	4cc	.	.
2F/	-(dӡić)	-(ne)	.	.	.	2a	-(dӡić)	-(ne)	1cc	-(dӡić)	(ne)
.	.	.	4e	.	.	.	.	.	.	.	.
=4-	=4	=4	=4	=4	=4	=4	=4	=4	=4	=4	=4
1G	ma-	bra-	4d	-(dӡić)	(ne)	2.g	ma-	bra	.	.	.
.	.	.	4c	.	.	.	.	.	.	.	.
.	.	.	2d	ma-	bra-	.	.	.	2b	ma-	bra-
.	.	.	.	.	.	4f	.	.	.	.	.
1C	-my/	-my.	1c	-my/	-my.	1e	-my/	my.	1cc	-my/	-my.
=5:!:	=5	=5	=5	=5	=5	=5	=5	=5	=5	=5	=5
=-	=-	=-	=-	=-	=-	=-	=-	=-	=-	=-	=-
*>B	*	*	*	*	*	*	*	*	*	*	*
1C	Ie-	.	1c	Ie-	.	2.g	Ie	.	1ee	Ie-	.
.	.	.	.	.	.	4a	.	.	.	.	.
2G	-ru-	.	2B	-ru-	.	2b	ru-	.	2dd	-ru-	.
2G	-(ӡa-	.	2B	-(ӡa-	.	2b	-(ӡa-	.	2dd	-(ӡa-	.
=6-	=6	=6	=6	=6	=6	=6	=6	=6	=6	=6	=6
2A	-lem)	.	2c/	-lem)	.	2a	-lem)	.	2cc	-lem)	.
2F/	wʒ́ór	.	2c/	wʒ́ór	.	2a	wʒ́ór	.	2cc	wʒ́ór	.
2G	miaʃt	.	2d	miaʃt	.	2g	miaʃt	.	2b	miaʃt	.
2D	ӡac-	.	2d	ӡac-	.	2f	ӡac-	.	2a	ӡac-	.
!!LO:PB:g=original
=7-	=7	=7	=7	=7	=7	=7	=7	=7	=7	=7	=7
2G	-nych/	.	2B	-nych/	.	2g	-nych/	.	2b	-nych/	.
2E	oӡ-	.	4e	oӡ	.	2g	oӡ-	.	2/g	oӡ-	.
.	.	.	4d	.	.	.	.	.	.	.	.
2F/	-do-	.	2c/	do-	.	2f	-do-	.	2a	-do-	.
2G	-bá	.	2B	-bá	.	2d	-bá	.	1g	-bá	.
=8-	=8	=8	=8	=8	=8	=8	=8	=8	=8	=8	=8
1A	świá-	.	1c	świá-	.	1c	świá-	.	.	.	.
.	.	.	.	.	.	.	.	.	2f	świá-	.
2G	-(ta)	.	2d	-(ta)	.	2B	-(ta)	.	2g/	-(ta)	.
1C	Ӡgo	.	2e	Ӡgo-	.	1g	Ӡgo	.	1cc	Ӡgo	.
=9-	=9	=9	=9	=9	=9	=9	=9	=9	=9	=9	=9
.	.	.	2.e	-dą	.	.	.	.	.	.	.
2C	dą	.	.	.	.	2g	dą	.	2cc	dą	.
.	.	.	4d	.	.	.	.	.	.	.	.
2F/	mieʃᴣ-	.	2c/	mieʃᴣ-	.	2f	mieʃᴣ-	.	2a	mieʃᴣ-	.
2F/	-cӡan	.	2c/	-cӡan	.	2f	-cӡan	.	2a	-cӡan	.
=10-	=10	=10	=10	=10	=10	=10	=10	=10	=10	=10	=10
2c	ʃwych	.	2c/	ʃwych	.	2/e	ʃwych	.	2g/	ʃwych	.
2B-	ʃpo-	.	2d	ʃpo-	.	2.g	ʃpo-	.	2dd	ʃpo-	.
2.A	-io	.	2e	-io	.	.	.	.	2.cc	-io	.
.	.	.	.	.	.	4f	-io	.	.	.	.
.	.	.	2c/	.	.	2e/	.	.	.	.	.
4G	.	.	.	.	.	.	.	.	4b	.	.
=11-	=11	=11	=11	=11	=11	=11	=11	=11	=11	=11	=11
2F/	na	.	4c/	na	.	2e/	na	.	4a	na	.
.	.	.	4d	.	.	.	.	.	4b	.	.
2E	ná	.	4e	ná	.	2g	ná	.	4cc	ná	.
.	.	.	4d	.	.	.	.	.	4b	.	.
2F/	wiecӡ-	.	4c/	wiecӡ	.	2.f	wiecӡ-	.	4a	wiecӡ	.
.	.	.	4B	.	.	.	.	.	4g	.	.
2F/	-(ne)	.	4c/	(ne)	.	.	.	.	2a	(ne)	.
.	.	.	4A	.	.	4e/	-(ne)	.	.	.	.
=12-	=12	=12	=12	=12	=12	=12	=12	=12	=12	=12	=12
1G	lá-	.	4B	lá	.	4d	lá	.	1g	lá-	.
.	.	.	2c/	.	.	4c	.	.	.	.	.
.	.	.	.	.	.	2d	.	.	.	.	.
.	.	.	4B	.	.	.	.	.	.	.	.
!!LO:N:vis=00
1C/	-ta.	.	1c	ta.	.	1e	ta.	.	1g	-ta.	.
=	=	=	=	=	=	=	=	=	=	=	=
*-	*-	*-	*-	*-	*-	*-	*-	*-	*-	*-	*-
!!!RDF**kern: l = terminal long
!!!system-decoration: s1,s2,s3,s4
!!!ENC:Anna Matuszewska
!!!END:2020-02-19
!!!URL-scan: https://polona.pl/item/melodiae-ná-psalterz-polski,Nzk3MTM4ODQ/285 Scan on Polona
!!!IIIF: https://polona.pl/iiif/item/Nzk3MTM4ODQ/manifest.json
